X: 2
T: The Sandymount
R: reel
M: 4/4
L: 1/8
K: Ador
EAGB A3G|EGDG EGDG|EAAG A2(3Bcd|egag gedB:|
eagb a2ba|gede gedg|eaab a2ga|b2ga baag|
eagb a2ba|gedB dega|b2ba gaag|(3efg dg egag||


Tune 176	Setting 176

